!!!COM: Gomółka, Mikołaj
!!!CDT: ~1535-after 1591
!!!OTL@POL: Panie uczyń sąd
!!!OTL@LAT: Iudica me, Domine
!!!AGn: Motet; Psalm
!!!SCn: Gom2026
!!!SCn: Gom2026
!!!voices: 4
**kern	**kern	**kern	**kern
*staff4	*staff3	*staff2	*staff1
*Ivox	*Ivox	*Ivox	*Ivox
*I"Bassus	*I"Tenor	*I"Altus	*I"Cantus
*I'B	*I'T	*I'A	*I'C
*clefF4	*clefGv2	*clefG2	*clefG2
*k[]	*k[]	*k[]	*k[]
*M2/1	*M2/1	*M2/1	*M2/1
*met(C|)	*met(C|)	*met(C|)	*met(C|)
=1-	=1-	=1-	=1-
1G	1B	1d	1g
2C	2.c	2.e	2g
2c	.	.	2g
.	4d	4d	.
=2	=2	=2	=2
2c	2e	2c	2a
2B	1d	2g	2b
1A	.	2g	1cc
.	2c	2f#	.
=3	=3	=3	=3
2G	2d	2g	2b
2.A	2c	2e	2.cc
.	1c	2f	.
4G	.	.	4b
[2F	.	[2f	[2a
=4	=4	=4	=4
2F]	2c	2f]	2a]
2G	2B	2d	1g
1D	1A	2.d	.
.	.	.	2f#i
.	.	4c	.
=5	=5	=5	=5
2E	2G	2B	2g
2C	2G	2c	2e
4D	4F	2A	1f
4E	4G	.	.
4F	4A	2d	.
4G	4B	.	.
=6	=6	=6	=6
4A	4c	2.A	2e
4B	4d	.	.
2c	2e	.	4c
.	.	4B	4d
2c	2e	4c	4e
.	.	4d	4f
2c	2e	4e	4g
.	.	4f	4a
=7	=7	=7	=7
2B	2d	2g	2b
2A	2c	2f	1cc
1G	1d	2.g	.
.	.	.	2b
.	.	4f	.
=8	=8	=8	=8
2C	2c	2e	2cc
4c	4e	4c	2g
4B	4d	4d	.
2.A	2c	2e	2.cc
.	[2c	2e	.
4G	.	.	4b
=9	=9	=9	=9
2F	4c]	2f	2a
.	4d	.	.
2E	4e	2c	2g
.	4d	.	.
1A	4c	2cc	2e
.	4B	.	.
.	2c	4b	2f
.	.	4a	.
=10	=10	=10	=10
2G	2d	2b	2g
1C	2c	2.g	2.e
.	2.c	.	.
.	.	4f	4f
2C	.	4e	2g
.	4B	4d	.
=11	=11	=11	=11
2F	2A	2c	2a
2F	2A	4f	2a
.	.	4e	.
1G	4B	4d	1g
.	2c	2e	.
.	4B	4d	.
=12	=12	=12	=12
2C	2c	2e	2g
4c	4e	4c	2g
4B	4d	4d	.
2.A	2c	2e	2.cc
.	[2c	2e	.
4G	.	.	4b
=13	=13	=13	=13
2F	4c]	2f	2a
.	4d	.	.
2E	4e	2c	2g
.	4d	.	.
1A	4c	2cc	2e
.	4B	.	.
.	2c	4b	2f
.	.	4a	.
=14	=14	=14	=14
2G	2d	2b	2g
1C	2c	2.g	2.e
.	2.c	.	.
.	.	4f	4f
2C	.	4e	2g
.	4B	4d	.
=15	=15	=15	=15
2F	2A	2c	2a
2F	2A	4f	2a
.	.	4e	.
1G	4B	4d	1g
.	2c	2e	.
.	4B	4d	.
=16	=16	=16	=16
0C	0c	0e	0g
==	==	==	==
*-	*-	*-	*-
!!!CNT: Polish
!!!OCY: Poland
!!!LYR: Jan Kochanowski (1530-1584/08/22)
!!!GTL: Melodiae na Psałterz Polski
!!!EFL: 26/150
!!!PPR: Łazarz Andrysowicz
!!!PPP: Kraków
!!!PDT: 1580
!!!YEC: 2015 Marcin Konik
!!!ENC: Marcin Konik
!!!END: 2015/05/19
!!!EED: Marcin Konik
!!!EEV: 2015/05/19
!!!ONB: Translated from MusicXML and edited on 2015/03/06 by Marcin Konik
!!!CharacterEncoding: utf-8
!!muse2ps: i2I150v85,85,85,150Q16
!!title: @{OTL}, @{GTL}, ed. @{ENC}
